X:4
T:Moravac Kolo
R:kolo
O:Serbia
Z:id:hn-kolo-4
M:2/4
L:1/16
K:Dmix
D4 G2F2 | EDGF E2E2 | F2D2 EDGF | E2E2 E2ED |
DFAF G2F2 | EDGF E2E2 | F2D2 EDGF | EEEA EEE2 :|
|: F4 A2FA | G2GF GAFD | F2A2 AFBA | G2GF GAFD :|
|: A,DEF G2F2 | FEGF E2EA | G2F2 FEGF |1 E2EA E2E2 :|2 EDEF GABc ||
|: dcBA GBAG | FAGF E2E2 | G2F2 FEGF |1 EDEF GABc :|2 E2EA E2E2 ||
P:variations
|: ~E2ED ~E2ED | ~E2ED ~E2ED | ~E2ED ~E2ED |1 ~E2EA ~E2ED :|2 ~E2EA E4 ||
|: D4 G2F2 | FDGF ~E2ED | G2F2 FDGF | ~E2EA E2ED |
D2AF G2F2 | FDGF ~E2ED | G2F2 FDGF | ~E2EA E4 :|
F4 A2AF | G2GE GAFD | F2FD A2BA | G2GE GAFD |
F2FD dcBA | G2GE GAFD | F2FD A2BA | G2GE GAFD ||
|: ^CDEF G2F2 | FDGF E2ED | G2F2 FDGF |1 E2EA E2ED :|2 EDEF GABc ||
|: dcBA GBAG | FAGF E2ED | G2F2 FDGF |1 EDEF GABc :|2 E2EA E4 ||

